src/images/near.svg

<svg fill="none" height="37" viewBox="0 0 139 37" width="139" xmlns="http://www.w3.org/2000/svg"><g fill="#000"><path d="m69.5853 8.0602v21.3241c-.0011.0804-.0335.1573-.0903.2142-.0569.0569-.1337.0893-.2141.0904h-2.216c-.5086.0004-1.0092-.1269-1.4559-.3703s-.8253-.5951-1.101-1.0229l-10.0571-15.5564.3449 7.7701v8.8749c-.001.0804-.0334.1573-.0903.2142-.0568.0569-.1337.0893-.2141.0904h-2.9303c-.0804-.0011-.1572-.0335-.214-.0904-.0569-.0569-.0893-.1338-.0903-.2142v-21.3241c.001-.08047.0334-.15734.0903-.21425.0568-.0569.1336-.08933.214-.09038h2.2039c.508.00027 1.0079.12746 1.4544.37003s.8255.59285 1.1025 1.01908l10.0571 15.53202-.3125-7.7416v-8.8749c0-.0808.0321-.15828.0892-.21541.057-.05713.1345-.08922.2152-.08922h2.9303c.0768.00608.1486.04072.2011.0971.0526.05638.0822.13041.083.20753z"/><path d="m99.5335 29.6889h-3.1008c-.0484-.0005-.0961-.0125-.1389-.0351-.0429-.0226-.0798-.0551-.1075-.0948-.0278-.0398-.0457-.0856-.0523-.1336-.0065-.0481-.0015-.097.0146-.1427l8.2144-21.23469c.035-.08891.097-.16475.177-.21711.08-.05237.174-.07868.27-.07533h3.884c.092.00079.181.02904.257.08114.076.05209.135.12566.169.2113l8.19 21.23469c.016.0457.021.0946.015.1427-.007.048-.025.0938-.053.1336-.027.0397-.064.0722-.107.0948s-.091.0346-.139.0351h-3.101c-.062.0003-.123-.0182-.174-.053s-.091-.0842-.114-.142l-6.62-17.4654c-.021-.0588-.06-.1096-.111-.1455s-.112-.0552-.175-.0552c-.062 0-.123.0193-.174.0552-.052.0359-.09.0867-.112.1455l-6.6193 17.4654c-.0231.0584-.0635.1084-.1157.1432s-.1138.0529-.1765.0518z"/><path d="m138.837 29.1974-6.161-7.8757c3.478-.658 5.511-3.0056 5.511-6.6084 0-4.1389-2.691-6.95773-7.451-6.95773h-8.592c-.121 0-.236.04792-.322.13324-.085.08531-.133.20102-.133.32167 0 .38404.076.76432.223 1.11913s.362.67719.633.94879c.271.2715.594.4869.948.6339.355.147.735.2226 1.118.2226h5.768c2.877 0 4.257 1.4744 4.257 3.6028 0 2.1283-1.347 3.6555-4.257 3.6555h-8.235c-.121.0011-.237.0499-.322.1359-.085.0859-.133.2021-.133.3231v10.5605c0 .0808.032.1583.089.2154s.135.0892.216.0892h2.93c.08-.001.157-.0335.214-.0904s.089-.1337.09-.2142v-7.9001h3.381l5.345 6.9821c.287.3737.655.6759 1.078.8831.422.2071.887.3136 1.357.3111h2.224c.056-.0031.11-.0213.155-.0527.046-.0314.083-.0748.106-.1254.023-.0507.031-.1066.025-.1619-.007-.0552-.028-.1076-.062-.1515z"/><path d="m90.2677 7.75557h-13.5962c-.1076 0-.2108.04279-.287.11896-.0761.07617-.1188.17948-.1188.28721 0 .78961.3134 1.54689.8713 2.10526.5579.5583 1.3146.872 2.1036.872h11.0271c.0402.0005.08-.007.1172-.0221.0371-.0151.0709-.0375.0993-.0659s.0508-.0622.0659-.0994.0226-.0771.022-.1172v-2.7742c0-.0808-.0321-.15828-.0891-.21541-.0571-.05713-.1345-.08922-.2153-.08922zm0 18.54993h-10.1464c-.0804-.0011-.1572-.0335-.2141-.0904-.0568-.0569-.0892-.1338-.0903-.2143v-5.4995c0-.0808.0321-.1583.0892-.2154.0571-.0572.1345-.0893.2152-.0893h9.3794c.0807 0 .1581-.0321.2152-.0892s.0892-.1346.0892-.2154v-2.7945c0-.0808-.0321-.1582-.0892-.2154-.0571-.0571-.1345-.0892-.2152-.0892h-12.7805c-.1209.0011-.2365.0499-.3216.1359-.0852.0859-.1329.2021-.1329.3231v11.9658c0 .1207.0479.2364.1331.3217.0853.0853.2009.1332.3214.1332h13.5475c.0808 0 .1582-.0321.2153-.0892.057-.0571.0891-.1346.0891-.2154v-2.7741c-.0031-.0783-.0367-.1523-.0936-.2062-.0569-.0538-.1325-.0834-.2108-.0822z"/><path d="m29.4176 2.30067-7.6383 11.34443c-.1237.1637-.181.3683-.1601.5725.0208.2043.1181.3931.2724.5284.1543.1354.354.2072.5591.2012.205-.0061.4002-.0897.5462-.2339l7.5165-6.49876c.0433-.03977.0974-.06594.1554-.07525.0581-.00932.1176-.00138.1712.02284s.0989.06365.1303.1134.0475.10763.0463.16646v20.42641c-.0006.062-.0201.1224-.0559.173s-.0862.0891-.1444.1103-.1216.0241-.1815.0083-.1136-.0495-.1539-.0966l-22.728-27.21359c-.36283-.43689-.81677-.78906-1.32997-1.031829-.51321-.242769-1.07326-.370257-1.6409-.373525h-.79142c-1.03227 0-2.02226.410385-2.75219 1.140874-.729919.73049-1.1399856 1.72125-1.1399856 2.75432v28.76515c0 1.0331.4100666 2.0238 1.1399856 2.7543.72993.7305 1.71992 1.1409 2.75219 1.1409.66512-.0001 1.31913-.1707 1.89961-.4957.58048-.3249 1.06807-.7934 1.41624-1.3605l7.63824-11.3444c.1238-.1638.181-.3683.1602-.5726-.0209-.2042-.1182-.393-.2725-.5284-.1542-.1353-.354-.2072-.559-.2011-.2051.0061-.4003.0896-.5463.2339l-7.51645 6.4987c-.04334.0398-.09739.066-.15545.0753-.05805.0093-.11757.0013-.17115-.0229-.05359-.0242-.0989-.0636-.1303-.1134-.03141-.0497-.04753-.1076-.04637-.1664v-20.40616c.00061-.06201.02013-.12237.05593-.17299s.08619-.0891.14443-.11029c.05824-.0212.12155-.0241.18148-.00831.05993.01578.11362.04949.15389.09663l22.72799 27.21352c.3656.433.8212.7809 1.3351 1.0194.5138.2385 1.0734.3619 1.6399.3616h.8117c.5111 0 1.0172-.1007 1.4894-.2965.4723-.1957.9013-.4826 1.2628-.8443.3614-.3617.6481-.7911.8437-1.2637s.2962-.9791.2962-1.4907v-28.76105c.0001-.51358-.1014-1.02209-.2985-1.49628-.1972-.47418-.486-.90467-.85-1.26669s-.796-.64843-1.271-.842743c-.4751-.194313-.9838-.292694-1.497-.289481-.6651.00008-1.3191.170739-1.8996.495692-.5805.324952-1.0681.793362-1.4162 1.360522z"/></g></svg>

<svg width="139" height="37" viewBox="0 0 139 37" fill="none" xmlns="http://www.w3.org/2000/svg">
<path d="M69.5853 8.0602V29.3843C69.5842 29.4647 69.5518 29.5416 69.495 29.5985C69.4381 29.6554 69.3613 29.6878 69.2809 29.6889H67.0649C66.5563 29.6893 66.0557 29.562 65.609 29.3186C65.1623 29.0752 64.7837 28.7235 64.508 28.2957L54.4509 12.7393L54.7958 20.5094V29.3843C54.7948 29.4647 54.7624 29.5416 54.7055 29.5985C54.6487 29.6554 54.5718 29.6878 54.4914 29.6889H51.5611C51.4807 29.6878 51.4039 29.6554 51.3471 29.5985C51.2902 29.5416 51.2578 29.4647 51.2568 29.3843V8.0602C51.2578 7.97973 51.2902 7.90286 51.3471 7.84595C51.4039 7.78905 51.4807 7.75662 51.5611 7.75557H53.765C54.273 7.75584 54.7729 7.88303 55.2194 8.1256C55.6659 8.36817 56.0449 8.71845 56.3219 9.14468L66.379 24.6767L66.0665 16.9351V8.0602C66.0665 7.9794 66.0986 7.90192 66.1557 7.84479C66.2127 7.78766 66.2902 7.75557 66.3709 7.75557H69.3012C69.378 7.76165 69.4498 7.79629 69.5023 7.85267C69.5549 7.90905 69.5845 7.98308 69.5853 8.0602V8.0602Z" fill="black"/>
<path d="M99.5335 29.6889H96.4327C96.3843 29.6884 96.3366 29.6764 96.2938 29.6538C96.2509 29.6312 96.214 29.5987 96.1863 29.559C96.1585 29.5192 96.1406 29.4734 96.134 29.4254C96.1275 29.3773 96.1325 29.3284 96.1486 29.2827L104.363 8.04801C104.398 7.9591 104.46 7.88326 104.54 7.8309C104.62 7.77853 104.714 7.75222 104.81 7.75557H108.694C108.786 7.75636 108.875 7.78461 108.951 7.83671C109.027 7.8888 109.086 7.96237 109.12 8.04801L117.31 29.2827C117.326 29.3284 117.331 29.3773 117.325 29.4254C117.318 29.4734 117.3 29.5192 117.272 29.559C117.245 29.5987 117.208 29.6312 117.165 29.6538C117.122 29.6764 117.074 29.6884 117.026 29.6889H113.925C113.863 29.6892 113.802 29.6707 113.751 29.6359C113.7 29.6011 113.66 29.5517 113.637 29.4939L107.017 12.0285C106.996 11.9697 106.957 11.9189 106.906 11.883C106.855 11.8471 106.794 11.8278 106.731 11.8278C106.669 11.8278 106.608 11.8471 106.557 11.883C106.505 11.9189 106.467 11.9697 106.445 12.0285L99.8257 29.4939C99.8026 29.5523 99.7622 29.6023 99.71 29.6371C99.6578 29.6719 99.5962 29.69 99.5335 29.6889V29.6889Z" fill="black"/>
<path d="M138.837 29.1974L132.676 21.3217C136.154 20.6637 138.187 18.3161 138.187 14.7133C138.187 10.5744 135.496 7.75557 130.736 7.75557H122.144C122.023 7.75557 121.908 7.80349 121.822 7.88881C121.737 7.97412 121.689 8.08983 121.689 8.21048V8.21048C121.689 8.59452 121.765 8.9748 121.912 9.32961C122.059 9.68442 122.274 10.0068 122.545 10.2784C122.816 10.5499 123.139 10.7653 123.493 10.9123C123.848 11.0593 124.228 11.1349 124.611 11.1349H130.379C133.256 11.1349 134.636 12.6093 134.636 14.7377C134.636 16.866 133.289 18.3932 130.379 18.3932H122.144C122.023 18.3943 121.907 18.4431 121.822 18.5291C121.737 18.615 121.689 18.7312 121.689 18.8522V29.4127C121.689 29.4935 121.721 29.571 121.778 29.6281C121.835 29.6852 121.913 29.7173 121.994 29.7173H124.924C125.004 29.7163 125.081 29.6838 125.138 29.6269C125.195 29.57 125.227 29.4932 125.228 29.4127V21.5126H128.609L133.954 28.4947C134.241 28.8684 134.609 29.1706 135.032 29.3778C135.454 29.5849 135.919 29.6914 136.389 29.6889H138.613C138.669 29.6858 138.723 29.6676 138.768 29.6362C138.814 29.6048 138.851 29.5614 138.874 29.5108C138.897 29.4601 138.905 29.4042 138.899 29.3489C138.892 29.2937 138.871 29.2413 138.837 29.1974Z" fill="black"/>
<path d="M90.2677 7.75557H76.6715C76.5639 7.75557 76.4607 7.79836 76.3845 7.87453C76.3084 7.9507 76.2657 8.05401 76.2657 8.16174C76.2657 8.95135 76.5791 9.70863 77.137 10.267C77.6949 10.8253 78.4516 11.139 79.2406 11.139H90.2677C90.3079 11.1395 90.3477 11.132 90.3849 11.1169C90.422 11.1018 90.4558 11.0794 90.4842 11.051C90.5126 11.0226 90.535 10.9888 90.5501 10.9516C90.5652 10.9144 90.5727 10.8745 90.5721 10.8344V8.0602C90.5721 7.9794 90.54 7.90192 90.483 7.84479C90.4259 7.78766 90.3485 7.75557 90.2677 7.75557ZM90.2677 26.3055H80.1213C80.0409 26.3044 79.9641 26.272 79.9072 26.2151C79.8504 26.1582 79.818 26.0813 79.8169 26.0008V20.5013C79.8169 20.4205 79.849 20.343 79.9061 20.2859C79.9632 20.2287 80.0406 20.1966 80.1213 20.1966H89.5007C89.5814 20.1966 89.6588 20.1645 89.7159 20.1074C89.773 20.0503 89.8051 19.9728 89.8051 19.892V17.0975C89.8051 17.0167 89.773 16.9393 89.7159 16.8821C89.6588 16.825 89.5814 16.7929 89.5007 16.7929H76.7202C76.5993 16.794 76.4837 16.8428 76.3986 16.9288C76.3134 17.0147 76.2657 17.1309 76.2657 17.2519V29.2177C76.2657 29.3384 76.3136 29.4541 76.3988 29.5394C76.4841 29.6247 76.5997 29.6726 76.7202 29.6726H90.2677C90.3485 29.6726 90.4259 29.6405 90.483 29.5834C90.54 29.5263 90.5721 29.4488 90.5721 29.368V26.5939C90.569 26.5156 90.5354 26.4416 90.4785 26.3877C90.4216 26.3339 90.346 26.3043 90.2677 26.3055Z" fill="black"/>
<path d="M29.4176 2.30067L21.7793 13.6451C21.6556 13.8088 21.5983 14.0134 21.6192 14.2176C21.64 14.4219 21.7373 14.6107 21.8916 14.746C22.0459 14.8814 22.2456 14.9532 22.4507 14.9472C22.6557 14.9411 22.8509 14.8575 22.9969 14.7133L30.5134 8.21454C30.5567 8.17477 30.6108 8.1486 30.6688 8.13929C30.7269 8.12997 30.7864 8.13791 30.84 8.16213C30.8936 8.18635 30.9389 8.22578 30.9703 8.27553C31.0017 8.32528 31.0178 8.38316 31.0166 8.44199V28.8684C31.016 28.9304 30.9965 28.9908 30.9607 29.0414C30.9249 29.092 30.8745 29.1305 30.8163 29.1517C30.7581 29.1729 30.6947 29.1758 30.6348 29.16C30.5749 29.1442 30.5212 29.1105 30.4809 29.0634L7.7529 1.84981C7.39007 1.41292 6.93613 1.06075 6.42293 0.817981C5.90972 0.575212 5.34967 0.447724 4.78203 0.444456H3.99061C2.95834 0.444456 1.96835 0.854841 1.23842 1.58533C0.508501 2.31582 0.0984344 3.30658 0.0984344 4.33965V33.1048C0.0984344 34.1379 0.508501 35.1286 1.23842 35.8591C1.96835 36.5896 2.95834 37 3.99061 37V37C4.65573 36.9999 5.30974 36.8293 5.89022 36.5043C6.4707 36.1794 6.95829 35.7109 7.30646 35.1438L14.9447 23.7994C15.0685 23.6356 15.1257 23.4311 15.1049 23.2268C15.084 23.0226 14.9867 22.8338 14.8324 22.6984C14.6782 22.5631 14.4784 22.4912 14.2734 22.4973C14.0683 22.5034 13.8731 22.5869 13.7271 22.7312L6.21065 29.2299C6.16731 29.2697 6.11326 29.2959 6.0552 29.3052C5.99715 29.3145 5.93763 29.3065 5.88405 29.2823C5.83046 29.2581 5.78515 29.2187 5.75375 29.1689C5.72234 29.1192 5.70622 29.0613 5.70738 29.0025V8.59634C5.70799 8.53433 5.72751 8.47397 5.76331 8.42335C5.79911 8.37273 5.8495 8.33425 5.90774 8.31306C5.96598 8.29186 6.02929 8.28896 6.08922 8.30475C6.14915 8.32053 6.20284 8.35424 6.24311 8.40138L28.9711 35.6149C29.3367 36.0479 29.7923 36.3958 30.3062 36.6343C30.82 36.8728 31.3796 36.9962 31.9461 36.9959H32.7578C33.2689 36.9959 33.775 36.8952 34.2472 36.6994C34.7195 36.5037 35.1485 36.2168 35.51 35.8551C35.8714 35.4934 36.1581 35.064 36.3537 34.5914C36.5493 34.1188 36.6499 33.6123 36.6499 33.1007V4.33965C36.65 3.82607 36.5485 3.31756 36.3514 2.84337C36.1542 2.36919 35.8654 1.9387 35.5014 1.57668C35.1374 1.21466 34.7054 0.92825 34.2304 0.733937C33.7553 0.539624 33.2466 0.441243 32.7334 0.444456V0.444456C32.0683 0.444536 31.4143 0.615195 30.8338 0.940148C30.2533 1.2651 29.7657 1.73351 29.4176 2.30067Z" fill="black"/>
</svg>
